X:75
T:Oak Cliff Road
C:Ed Yother
C:http://edyother.com
K:Gdor
R:Reel
M:4/4
DGG^F G2 GA | BAGd cAGF | DFFE F2 FA | cFdF cAGF |
DGG^F G2 GA | BAGd cAGF | dcde fedc | AdcA GFDC :|
|: GABc d2 dg | fagd fdcA | cAGD FEFD | CDFG AGFD |
GABc d2 dg | fagd fdcA | c=Bcd fdcA |[1 GBAG FDCD :|[2 c2 cA GFDC |]

